.local/share/icons/Gruvbox-Plus-Dark/mimetypes/scalable/application-photoshop.svg

<svg width="256" height="256" viewBox="0 0 256 256" fill="none" xmlns="http://www.w3.org/2000/svg">
<g clip-path="url(#clip0)">
<g opacity="0.4" filter="url(#filter0_f)">
<path d="M55.0839 15.5636H155.608L216.009 75.7129L216.011 224.609C216.011 233.52 208.749 240.737 199.838 240.737H55.0838C46.1734 240.737 39 233.564 39 224.654V31.6474C39 22.737 46.1734 15.5636 55.0838 15.5636H55.0839Z" fill="#282828"/>
</g>
<path d="M55.0839 15H155.608L216.009 75.1493L216.011 224.045C216.011 232.956 208.749 240.174 199.838 240.174H55.0838C46.1734 240.174 39 233 39 224.09V31.0838C39 22.1734 46.1734 15 55.0838 15H55.0839Z" fill="#ebdbb2"/>
<path fill-rule="evenodd" clip-rule="evenodd" d="M155.608 20.3191H55.0839C49.1112 20.3191 44.3191 25.1111 44.3191 31.0838V224.09C44.3191 230.063 49.1111 234.855 55.0838 234.855H199.838C205.83 234.855 210.692 229.999 210.692 224.046V75.1493L155.608 20.3191ZM155.608 15H55.0839C46.1735 15 39 22.1734 39 31.0838V224.09C39 233 46.1734 240.174 55.0838 240.174H199.838C208.749 240.174 216.011 232.956 216.011 224.045L216.009 75.1493L155.608 15Z" fill="url(#paint0_linear)"/>
<path d="M68 76.5178C68 75.8928 69.3312 75.4464 70.0919 75.4464C76.1775 75.1785 85.2108 75 94.6244 75C120.964 75 131.233 88.5714 131.233 105.982C131.233 128.661 113.737 138.393 92.2472 138.393C88.6339 138.393 87.3978 138.214 84.8304 138.214V172.5C84.8304 173.214 84.5452 173.571 83.6894 173.571H69.141C68.3804 173.571 68 173.304 68 172.5V76.5178ZM84.9255 123.929C87.1125 124.107 88.8241 124.107 92.6276 124.107C103.753 124.107 114.212 120.446 114.212 106.25C114.212 94.9106 106.7 89.1963 94.0539 89.1963C90.2504 89.1963 86.6371 89.3749 84.9255 89.4642V123.929ZM166.7 113.304C159.189 113.304 156.621 116.875 156.621 119.821C156.621 123.036 158.333 125.268 168.412 130.179C183.341 136.964 188 143.482 188 153.036C188 167.321 176.399 175 160.71 175C152.437 175 145.306 173.393 141.217 171.161C140.552 170.893 140.456 170.446 140.456 169.732V156.607C140.456 155.714 140.932 155.446 141.597 155.893C147.588 159.554 154.434 161.161 160.71 161.161C168.222 161.161 171.36 158.214 171.36 154.196C171.36 150.982 169.173 148.125 159.569 143.482C146.067 137.411 140.456 131.25 140.456 120.982C140.456 109.464 150.06 99.9107 166.7 99.9107C174.878 99.9107 180.583 101.071 183.721 102.411C184.482 102.857 184.672 103.571 184.672 104.196V116.429C184.672 117.143 184.197 117.589 183.246 117.321C179.062 114.821 172.881 113.304 166.7 113.304V113.304Z" fill="url(#paint1_linear)"/>
<path opacity="0.25" d="M155.608 17V61.2306C155.608 70.141 162.867 77.1605 171.777 77.1605L216.009 77.1493V75.1493L155.608 17Z" fill="#282828"/>
<path d="M155.608 15V59.2306C155.608 68.141 162.867 75.1605 171.777 75.1605L216.009 75.1493L155.608 15Z" fill="url(#paint2_linear)"/>
</g>
<defs>
<filter id="filter0_f" x="23.8778" y="0.441412" width="207.255" height="255.418" filterUnits="userSpaceOnUse" color-interpolation-filters="sRGB">
<feFlood flood-opacity="0" result="BackgroundImageFix"/>
<feBlend mode="normal" in="SourceGraphic" in2="BackgroundImageFix" result="shape"/>
<feGaussianBlur stdDeviation="7.5611" result="effect1_foregroundBlur"/>
</filter>
<linearGradient id="paint0_linear" x1="39" y1="15" x2="39" y2="240.174" gradientUnits="userSpaceOnUse">
<stop offset="1e-07" stop-color="#83a598"/>
<stop offset="1" stop-color="#83a598"/>
</linearGradient>
<linearGradient id="paint1_linear" x1="68" y1="75" x2="68" y2="175" gradientUnits="userSpaceOnUse">
<stop offset="1e-07" stop-color="#83a598"/>
<stop offset="1" stop-color="#83a598"/>
</linearGradient>
<linearGradient id="paint2_linear" x1="155.608" y1="15" x2="155.608" y2="75.1605" gradientUnits="userSpaceOnUse">
<stop offset="1e-07" stop-color="#83a598"/>
<stop offset="1" stop-color="#83a598"/>
</linearGradient>
<clipPath id="clip0">
<rect width="256" height="256" fill="#ebdbb2"/>
</clipPath>
</defs>
</svg>

<svg width="256" height="256" fill="none" version="1.1" viewBox="0 0 256 256" xmlns="http://www.w3.org/2000/svg">
  <path d="m55.08 15h100.5l60.4 60.15 2e-3 148.9c0 8.911-7.262 16.13-16.17 16.13h-144.8c-8.91 0-16.08-7.174-16.08-16.08v-193c0-8.91 7.173-16.08 16.08-16.08h1e-4z" fill="#ebdbb2"/>
  <path d="m155.6 20.32h-100.5c-5.973 0-10.76 4.792-10.76 10.76v193c0 5.973 4.792 10.76 10.76 10.76h144.8c5.992 0 10.85-4.856 10.85-10.81v-148.9l-55.08-54.83zm0-5.319h-100.5c-8.91 0-16.08 7.173-16.08 16.08v193c0 8.91 7.173 16.08 16.08 16.08h144.8c8.911 0 16.17-7.218 16.17-16.13l-2e-3 -148.9-60.4-60.15z" clip-rule="evenodd" fill="url(#paint0_linear)" fill-rule="evenodd"/>
  <path d="m68 76.52c0-0.625 1.331-1.071 2.092-1.071 6.086-0.2679 15.12-0.4464 24.53-0.4464 26.34 0 36.61 13.57 36.61 30.98 0 22.68-17.5 32.41-38.99 32.41-3.613 0-4.849-0.179-7.417-0.179v34.29c0 0.714-0.2852 1.071-1.141 1.071h-14.55c-0.7606 0-1.141-0.267-1.141-1.071v-95.98zm16.93 47.41c2.187 0.178 3.899 0.178 7.702 0.178 11.13 0 21.58-3.661 21.58-17.86 0-11.34-7.512-17.05-20.16-17.05-3.804 0-7.417 0.1786-9.128 0.2679v34.46zm81.77-10.62c-7.511 0-10.08 3.571-10.08 6.517 0 3.215 1.712 5.447 11.79 10.36 14.93 6.785 19.59 13.3 19.59 22.86 0 14.28-11.6 21.96-27.29 21.96-8.273 0-15.4-1.607-19.49-3.839-0.665-0.268-0.761-0.715-0.761-1.429v-13.12c0-0.893 0.476-1.161 1.141-0.714 5.991 3.661 12.84 5.268 19.11 5.268 7.512 0 10.65-2.947 10.65-6.965 0-3.214-2.187-6.071-11.79-10.71-13.5-6.071-19.11-12.23-19.11-22.5 0-11.52 9.604-21.07 26.24-21.07 8.178 0 13.88 1.16 17.02 2.5 0.761 0.446 0.951 1.16 0.951 1.785v12.23c0 0.714-0.475 1.16-1.426 0.892-4.184-2.5-10.36-4.017-16.55-4.017z" fill="url(#paint1_linear)"/>
  <path d="m155.6 17v44.23c0 8.91 7.259 15.93 16.17 15.93l44.23-0.0112v-2l-60.4-58.15z" fill="#282828" opacity=".25"/>
  <path d="m155.6 15v44.23c0 8.91 7.259 15.93 16.17 15.93l44.23-0.0112-60.4-60.15z" fill="url(#paint2_linear)"/>
  <defs>
    <linearGradient id="paint0_linear" x1="39" x2="39" y1="15" y2="240.2" gradientUnits="userSpaceOnUse">
      <stop stop-color="#83a598" offset="1e-7"/>
      <stop stop-color="#83a598" offset="1"/>
    </linearGradient>
    <linearGradient id="paint1_linear" x1="68" x2="68" y1="75" y2="175" gradientUnits="userSpaceOnUse">
      <stop stop-color="#83a598" offset="1e-7"/>
      <stop stop-color="#83a598" offset="1"/>
    </linearGradient>
    <linearGradient id="paint2_linear" x1="155.6" x2="155.6" y1="15" y2="75.16" gradientUnits="userSpaceOnUse">
      <stop stop-color="#83a598" offset="1e-7"/>
      <stop stop-color="#83a598" offset="1"/>
    </linearGradient>
  </defs>
</svg>
